svgs/solid/computer-mouse-scrollwheel.svg

<svg xmlns="http://www.w3.org/2000/svg" viewBox="0 0 384 512"><!-- Font Awesome Pro 6.0.0-alpha2 by @fontawesome - https://fontawesome.com License - https://fontawesome.com/license (Commercial License) --><path d="M224 0H160C71.625 0 0 71.625 0 160V352C0 440.375 71.625 512 160 512H224C312.375 512 384 440.375 384 352V160C384 71.625 312.375 0 224 0ZM224 160C224 177.625 209.625 192 192 192C174.375 192 160 177.625 160 160V128C160 110.375 174.375 96 192 96C209.625 96 224 110.375 224 128V160Z"/></svg>

<svg xmlns="http://www.w3.org/2000/svg" viewBox="0 0 384 512"><!--! Font Awesome Pro 6.3.0 by @fontawesome - https://fontawesome.com License - https://fontawesome.com/license (Commercial License) Copyright 2023 Fonticons, Inc. --><path d="M160 0C71.6 0 0 71.6 0 160V352c0 88.4 71.6 160 160 160h64c88.4 0 160-71.6 160-160V160C384 71.6 312.4 0 224 0H160zm64 128v32c0 17.7-14.3 32-32 32s-32-14.3-32-32V128c0-17.7 14.3-32 32-32s32 14.3 32 32z"/></svg>
